X:1
T:2 Konzertetüden
T:2 Konzertetüden
T:S. 145/1 "Waldesrauschen"
T:Franz Liszt
C:Franz Liszt
%%score 1 { ( 2 5 ) | ( 3 4 ) }
L:1/8
Q:1/4=120
M:4/4
K:Db
V:1 treble nm="Piano"
V:2 treble nm="Piano"
V:5 treble 
V:3 bass 
V:4 bass 
V:1
"^Vivace." z8 | z8 | z8 | z8 | z8 | z8 | z8 | z8 ||[K:E] z8 | z8 | z8 | z8 | z8 | z8 ||[K:Db] z8 | %15
 z8 | z8 | z4 | z4 | z8 | z8 | z8 ||[K:E] z8 | z8 | z8 | z8 | z8 ||[K:F] z8 | z8 | z8 | z8 | z8 | %32
 z8 | z8 | z8 | z8 | z8 ||[K:A] z8 | z8 | z8 | z8 | z4 | z4 | z8 | z8 | z8 ||[K:C] z8 | z8 | z8 | %49
 z8 | z8 | z8 | z8 | z8 | z8 | z8 | z8 | z8 | z8 | z8 | z8 | %61
[Q:1/4=120] z8[Q:1/4=113]"^.3"[Q:1/4=106]"^.7"[Q:1/4=100][Q:1/4=93]"^.3"[Q:1/4=86]"^.7"[Q:1/4=80][Q:1/4=70][Q:1/4=60][Q:1/4=50] || %62
[K:Db][Q:1/4=120]"^Un poco più mosso." z8 | z8 | z8 | z8 | z8 | z8 | z8 | z8 | z8 | z8 || %72
[K:E][Q:1/4=120]"^stringendo molto e sempre fortissimo ed appassionato.""^OSSIA."!8va(! [d'd''][Q:1/4=120]"^.6"[e'e''][Q:1/4=121]"^.3" z[Q:1/4=121]"^.9" (.[gbf'][Q:1/4=122]"^.5" z[Q:1/4=123]"^.1" .[be'^^f'][Q:1/4=123]"^.8" z[Q:1/4=124]"^.4" .[be'g']) | %73
[Q:1/4=125] z[Q:1/4=125]"^.6" [^bd'a']2[Q:1/4=126]"^.9" [^bd'g'][Q:1/4=127]"^.5" [ad'e'][Q:1/4=128]"^.1"[ad'f'][Q:1/4=128]"^.8"[^f=c'=d'][Q:1/4=129]"^.4"[fc'^d'][Q:1/4=126]"^.2" | %74
[Q:1/4=130] z[Q:1/4=130]"^.6" (.[g=be'][Q:1/4=131]"^.3" z[Q:1/4=131]"^.9" .[gbf'][Q:1/4=132]"^.5" z[Q:1/4=133]"^.1" .[be'^^f'][Q:1/4=133]"^.8" z[Q:1/4=134]"^.4" .[be'g']) | %75
[Q:1/4=135] z[Q:1/4=135]"^.6" [^bd'a']2[Q:1/4=136]"^.9" [^bd'g'][Q:1/4=137]"^.5" [ad'e'][Q:1/4=138]"^.1"[ad'f'][Q:1/4=138]"^.8"[^f=c'=d'][Q:1/4=139]"^.4"[fc'^d'][Q:1/4=136]"^.2" | %76
[Q:1/4=140] z[Q:1/4=140]"^.6" (.[eg=be'][Q:1/4=141]"^.3" z[Q:1/4=141]"^.9" .[gbf'][Q:1/4=142]"^.5" z[Q:1/4=143]"^.1" .[be'^^f'][Q:1/4=143]"^.7" z[Q:1/4=144]"^.4" .[be'g']) | %77
[Q:1/4=145] z[Q:1/4=145]"^.6" (.[gb^e'][Q:1/4=146]"^.3" z[Q:1/4=146]"^.9" .[^abf'][Q:1/4=147]"^.5" z[Q:1/4=148]"^.1" .[^ac'=g'][Q:1/4=148]"^.8" z[Q:1/4=149]"^.4" .[=b=d'^g']) | %78
[Q:1/4=150] z[Q:1/4=150]"^.6" (.[^bd'a'][Q:1/4=151]"^.2" z[Q:1/4=151]"^.9" .[c'e'a'][Q:1/4=152]"^.5" z[Q:1/4=153]"^.1" .[^bd'a'][Q:1/4=153]"^.8" z[Q:1/4=154]"^.4" .[c'e'a'])[Q:1/4=152]"^.8"[Q:1/4=153]"^.4"[Q:1/4=154]"^.1"[Q:1/4=154]"^.7" | %79
[Q:1/4=155] z/[Q:1/4=155]"^.3" [f'a']/[Q:1/4=155]"^.6"=b'/[Q:1/4=155]"^.9"[f'a']/[Q:1/4=156]"^.3"b'/[Q:1/4=156]"^.6"[f'a']/[Q:1/4=156]"^.9"b'/[Q:1/4=157]"^.2"[f'a']/[Q:1/4=157]"^.5"b'/[Q:1/4=157]"^.8"[f'a']/[Q:1/4=158]"^.1"b'/[Q:1/4=158]"^.4"[f'a']/[Q:1/4=158]"^.7"b'/[Q:1/4=159]"^.1"[f'a']/[Q:1/4=159]"^.4"b'/[Q:1/4=159]"^.7"[f'a']/!8va)! | %80
[Q:1/4=160] z8 | z8 ||[K:Db] z8 | z8 | z8 | %85
 z8[Q:1/4=160][Q:1/4=159]"^.4"[Q:1/4=159]"^.1"[Q:1/4=158]"^.8"[Q:1/4=158]"^.2"[Q:1/4=157]"^.6"[Q:1/4=157]"^.3"[Q:1/4=157][Q:1/4=156]"^.4"[Q:1/4=155]"^.8"[Q:1/4=155]"^.5"[Q:1/4=155]"^.2"[Q:1/4=154]"^.5"[Q:1/4=153]"^.9"[Q:1/4=153]"^.6"[Q:1/4=153]"^.3"[Q:1/4=152]"^.7"[Q:1/4=152]"^.1"[Q:1/4=151]"^.8"[Q:1/4=151]"^.5"[Q:1/4=150]"^.9"[Q:1/4=150]"^.3"[Q:1/4=150][Q:1/4=149]"^.7" | %86
[Q:1/4=149]"^.1" z8[Q:1/4=148]"^.5"[Q:1/4=148]"^.2"[Q:1/4=147]"^.9"[Q:1/4=147]"^.3"[Q:1/4=146]"^.7"[Q:1/4=146]"^.4"[Q:1/4=146]"^.1"[Q:1/4=145]"^.5"[Q:1/4=144]"^.8"[Q:1/4=144]"^.5"[Q:1/4=144]"^.2"[Q:1/4=143]"^.6"[Q:1/4=143][Q:1/4=142]"^.7"[Q:1/4=142]"^.4"[Q:1/4=141]"^.8"[Q:1/4=141]"^.2"[Q:1/4=140]"^.9"[Q:1/4=140]"^.6"[Q:1/4=140][Q:1/4=139]"^.4"[Q:1/4=139]"^.1"[Q:1/4=138]"^.8"[Q:1/4=138]"^.2"[Q:1/4=137]"^.6"[Q:1/4=137]"^.3"[Q:1/4=137][Q:1/4=136]"^.4"[Q:1/4=135]"^.8"[Q:1/4=135]"^.5"[Q:1/4=135]"^.2" | %87
[Q:1/4=134]"^.5" z8[Q:1/4=133]"^.3"[Q:1/4=132]"^.7"[Q:1/4=132]"^.1"[Q:1/4=130]"^.9"[Q:1/4=129]"^.7"[Q:1/4=128]"^.5"[Q:1/4=127]"^.3"[Q:1/4=123]"^.6"[Q:1/4=121]"^.8" | %88
[Q:1/4=120] z8 | z8 | z8 | z8 | z8 | z8 | z8 | z8 | z8 | z8 | z8 |] %99
V:2
"^una corda." z!pp! (3[fa]/e/c/ (6:4:6(A/e/c/[fa]/e/c/) (6:4:6(A/e/c/[fa]/e/c/) (6:4:6(A/e/c/[fa]/e/c/) | %1
 (6:4:6A/e/c/[fa]/e/c/ (6:4:6A/e/c/[fa]/e/c/ (6:4:6A/e/c/[fa]/e/c/ (6:4:6A/e/c/[fa]/e/c/ | %2
 (6:4:6A/e/c/[fa]/e/c/ (6:4:6A/e/c/[fa]/e/c/ (6:4:6A/e/c/[fa]/e/c/ (6:4:6A/e/c/[fa]/e/c/ | %3
 (6:4:6A/e/d/[fa]/e/d/ (6:4:6A/e/d/[fa]/e/d/ (6:4:6A/e/d/[fa]/e/d/ (6:4:6A/e/d/[fa]/e/d/ | %4
 (6:4:6A/e/d/[fa]/e/d/ (6:4:6A/e/d/[fa]/e/d/ (6:4:6z/ e/d/[fa]/e/d/ (6:4:6z/ e/d/[fa]/e/d/ | %5
 (6:4:6A/e/c/[fa]/e/c/ (6:4:6A/e/c/[fa]/e/c/ (6:4:6A/e/c/[fa]/e/c/ (6:4:6A/e/c/[fa]/e/c/ | %6
 (6:4:6A/e/c/[fa]/e/c/ (6:4:6A/e/c/[fa]/e/c/ (6:4:6A/e/c/[fa]/e/c/ (6:4:6A/e/c/[fa]/e/c/ | %7
 (6:4:6A/e/d/[fa]/e/d/ (6:4:6A/e/d/[fa]/e/d/ (6:4:6A/e/d/[fa]/e/d/ (6:4:6A/e/d/[fa]/e/d/ || %8
[K:E] (6:4:6G/d/c/[^eg]/d/c/ (6:4:6A/d/c/[fa]/d/c/ (6:4:6z/ d/c/[fa]/d/c/ (6:4:6z/ d/c/[fa]/d/c/ | %9
 (6:4:6A/d/c/[fa]/d/c/ (6:4:6B/f/e/[gb]/f/e/ (6:4:6z/ f/e/[gb]/f/e/ (6:4:6z/ f/e/[gb]/f/e/ | %10
 (6:4:6B/f/e/[gb]/f/e/ (6:4:6^B/f/e/[g^b]/f/e/ (6:4:6z/ f/e/[gb]/f/e/ (6:4:6z/ f/e/[gc']/f/e/ | %11
 (6:4:6c/f/e/[gc']/f/e/ (6:4:6c/f/e/[gc']/f/e/ (6:4:6=d/g/f/"_poco cresc."[a=d']/g/f/ (6:4:6d/g/f/[ad']/g/f/ | %12
 (6:4:6^d/g/f/[a^d']/g/f/ (6:4:6^d/g/f/[a^d']/g/f/ (6:4:6e/b/a/[c'e']/b/a/ (6:4:6^e/b/a/[c'^e']/b/a/ | %13
"_poco rallent smorzando" (6:4:6F/B/A/[cf]/B/A/ (6:4:6F/B/A/[cf]/B/A/ (6:4:6F/B/A/[cf]/B/A/ (6:4:6F/B/A/[cf]/B/A/ || %14
[K:Db]"^tre corde" z!mf! ([gg']2 [ff'] [=d=d'][ff'][ee'][_d_d']) | %15
 ([=B=b][dd'][cc'][_B_b]) (3([=G=g][Aa][Bb]) (.[Aa].[_G_g]) | %16
 ([Ff][Aa][dd'][ee'] [=e=e']2 [ff']) [dd'] |!<(! ([Bb][Aa][dd'][ff'])!<)! | %18
!8va(!!>(! ([bb']2 [aa'])!8va)! z!>)! | %19
 z!mp! !>![gg']2 [ff'] (3([=d=d'][ee'][ff']) (.[ee'].[_d_d']) | %20
 (3([=B=b][cc'][dd']) (.[cc'].[_B_b]) (3([=G=g][Aa][Bb]) (.[Aa].[_G_g]) | %21
 ([Ff][Aa]!<(![dd'][ee']!<)! [=e=e']2 [ff']) [dd'] || %22
[K:E] ([Bb][Aa][cc'][ff'] [gg']2 [aa']) [ff'] |{/d'} ([cc'][Bb][ee'][gg'] [^a^a']2 [bb']) [gg'] | %24
!8va(!{/e'} ([dd'][cc'][ff'][aa'] [^b^b']2 [c'c''])!8va)! z | z"_poco calando" (!>!a2 g ^efga) | %26
 z!8va(! (!arpeggio![aa']2 [gg'] [^e^e']!<(![ff'][gg'][aa'])!<)! || %27
[K:F] z !^![bb']2 [aa'] [^f^f'][aa'][gg'][ee']!8va)! | %28
"_più rinforz." [^c^c'][ee'][dd'][^G^g] (3([Aa][cc'][Bb]) (3:2:4([^F^f][Aa])z/[Gg]/ | %29
 !wedge!!^![=F=f]"^leggierissimo" (3([FA]/D/C/[I:staff +1] (3[F,A,]/D/C/)[I:staff -1] (3([fa]/d/c/[I:staff +1](3[FA]/d/c/)!8va(![I:staff -1] (3([f'a']/d'/c'/!8va)![I:staff +1](3[fa]/d/c/)[I:staff -1] (3[ac']/g/f/ | %30
 (3c/g/e/(3[ac']/g/e/ (3c/g/e/(3[ac']/g/e/ (3c/g/e/(3[ac']/g/e/ (3c/g/e/[ac']/4g/4e/4c/4 | %31
 z (3([FA]/D/C/[I:staff +1] (3[F,A,]/D/C/)[I:staff -1] (3([fa]/d/c/[I:staff +1](3[FA]/d/c/)!8va(![I:staff -1] (3([f'a']/d'/c'/!8va)![I:staff +1](3[fa]/d/c/)[I:staff -1] (3[ac']/g/f/ | %32
!pp! (3c/g/e/(3[ac']/g/e/ (3c/g/e/(3[ac']/g/e/ (3c/g/e/(3[ac']/g/e/ (3c/g/e/(3[ac']/g/e/ | %33
 (3c/g/e/(3[ac']/g/e/ (3c/g/e/(3[ac']/g/e/ (3c/g/e/(3[ac']/g/e/ (3c/g/e/[ac']/4g/4e/4c/4 | %34
!pp! z!8va(! a'2 .g' .e' .g' .f' .d' | .=b .d' .c' ._b!8va)! .^g .a .a .=g | %36
 e g f e"^poco rallent." ^d ^g a =b || %37
[K:A]"^a tempo." (6:4:6c'/a/e/c/A/E/ z"_leggieriss." (3[ac']/f/e/ z!8va(! (3[a'c'']/f'/e'/ z (3[c'e']/b/a/ | %38
 (3e/b/g/(3[c'e']/b/g/ (3e/b/g/(3[c'e']/b/g/ (3e/b/g/(3[c'e']/b/g/ (3e/b/g/[c'e']/4b/4g/4e/4!8va)! | %39
!pp! z z x z z!8va(! z z z | %40
 (3e/b/g/(3[c'e']/b/g/ (3e/b/g/(3[c'e']/b/g/ (3e/b/g/(3[c'e']/b/g/ (3e/b/g/(3[c'e']/b/g/ | %41
 (3e/b/g/(3[c'e']/b/g/ (3e/b/g/(3[c'e']/b/g/ | (3e/b/g/(3[c'e']/b/g/ (3e/b/g/[c'e']/4b/4g/4e/4 | %43
 z!pp! c''2 .b' .g' .b' .a' .f' | .^d' .f' .e' .=d'!8va)! .^b .c' .c' .=b | %45
 g b a ^d f e (6:4:6E/C/[I:staff +1]A,/=G,/A,/_B,/ || %46
[K:C]"^tre corde poco a poco più agitato."!<(![I:staff -1] (^C EGA) A2 _B2!<)! | %47
 z!f!!8va(! ([_b_b']2 [aa']) ([^f^f'][gg'][ee'][dd'])!8va)! | %48
[I:staff +1] (!>!D[I:staff -1] =F_A_B B2 _c2) | %49
 z!8va(! ([_c'_c'']2 [_b_b']) ([gg'][_a_a'][ff'][_e_e'])!8va)! | %50
[I:staff +1] (!>!_E[I:staff -1] ^FA=B) (B2 c2) | %51
[I:staff +1] (3^F,/[I:staff -1]^F/C/ (3A,/A/F/ (3C/c/[FA]/ (3D/d/[FA]/ (d2 _e2) | %52
 z!ff! [_g_g']2 [ff'] [dd'][_e_e'][cc'][_B_b] | %53
 [Aa] !>![_g_g']2 [ff'] (3[dd'][_e_e'][ff'] (3[ee'][cc'][_B_b] | %54
 (3z/ =A/[ca]/ (3z/ c/[_ec']/ (3z/!8va(! e/[_g_e']/ (3z/ =e/!<(![=g=e']/ (3z/ f/[af']/ (3z/ _g/_g'/ (3z/ _e/[_g_e']/!<)!!<(! (3z/ _g/[a_g']/!<)! | %55
 (3z/ a/[c'a']/!<(! (3z/ _b/[_d'_b']/ (3z/ =b/[_e'=b']/ (3z/ c'/[e'c'']/ (3z/ a/[c'a']/ (3z/ c'/[e'c'']/ (3z/!<)! _e'/[_g'_e'']/ (3z/ =e'/[=g'=e'']/ | %56
 (6:4:6z/ f'/a'/!^!f''/a'/f'/ (6:4:6f'/a/f/!8va)!f/A/F/[K:bass][I:staff +1] =B,/"^martellato."[I:staff -1]=B,/[I:staff +1] _D/[I:staff -1]_D/[I:staff +1] C/[I:staff -1]C/[I:staff +1] A,/[I:staff -1]A,/ | %57
[K:treble] (6:4:6z/!8va(! f'/a'/!^!f''/a'/f'/ (6:4:6f'/a/f/!8va)!f/A/F/[K:bass][I:staff +1] =B,/"^martellato."[I:staff -1]=B,/[I:staff +1] =D/[I:staff -1]=D/[I:staff +1] ^C/[I:staff -1]^C/[I:staff +1] A,/[I:staff -1]A,/ | %58
[K:treble] (6:4:6z/!8va(! ^f'/a'/!^!^f''/a'/f'/ (6:4:6f'/a/^f/!8va)!f/A/^F/[K:bass][I:staff +1] ^C/[I:staff -1]^C/[I:staff +1] E/[I:staff -1]E/[I:staff +1] D/[I:staff -1]D/[I:staff +1] B,/[I:staff -1]B,/ | %59
 x8 |[K:treble] z8 | z8 ||[K:Db]"^poco ralent."!f! z [gg']2 [ff'] [=d=d'][ff'][ee'][_d_d'] | %63
 [=B=b][dd'][cc'][_B_b] (3[=G=g][Aa][Bb] (.[Aa].[_G_g]) | %64
 ([Ff]!<(![Aa][dd'][ee']!<)! !>![=e=e']2 [ff']) [dd'] | %65
 ([Bb][Aa][dd'][ff']!8va(!!>(! [bb']2!>)! [aa'])!8va)! z | %66
 z [gg']2 [ff'] (3([=d=d'][ee'][ff']) [ee'][_d_d'] | %67
 (3([=B=b][cc'][dd']) (.[cc'].[_B_b]) (3([=G=g][Aa][_Bb]) (.[Aa].[_G_g]) | %68
 [Ff]!<(![Aa][dd'][ee']!<)! (!>![=e=e']2 [ff']) [dd'] | %69
 [Bb][Aa][dd'][ff']!8va(! (!>![bb']2"^piu rinforz." [aa']) [ff'] | %70
 [ee'][dd'][gg'][bb'] (!>![c'c'']2 [d'd'']) [^f^f'] | %71
 [=e=e'][=d=d'][^f^f'][=a=a'] [^c'^c''] !>![=d'=d'']2 !>![^d'^d'']- || %72
[K:E]!ff! [d'd''] !>![e'e'']2 !>![f'f'']2 !>![^^f'^^f'']2 [g'g''] | %73
 z !^![a'a'']2 [g'g''] [^e'^e''][^f'^f''][=d'=d''][^d'^d''] | %74
 z !>![e'e'']2!<(! !>![f'f'']2 !>![^^f'^^f'']2 !>![g'g'']!<)! | %75
 z [a'a'']2 [g'g''] [^e'^e''][^f'^f''][=d'=d''][^d'^d''] | %76
!fff! z [e'e'']2 [f'f'']2 [^^f'^^f'']2!<(! [g'g''] | %77
 z [^e'^e'']2 [f'f'']2 [=g'=g'']2 [^g'^g'']!<)! | %78
 z !^![a'a'']2 !^![a'a''] z/ a'/a''/a'/a''/a'/a''/a'/ | %79
 a''/a'/a''/a'/a''/a'/a''/a'/a''/a'/a''/a'/a''/a'/a''/a'/ | %80
"^quasi trillo"[I:staff +1] !^![f'g']/[I:staff -1][^bd'a']/[I:staff +1][f'g']/[I:staff -1][bd'a']/[I:staff +1][f'g']/[I:staff -1][bd'a']/[I:staff +1][f'g']/[I:staff -1][bd'a']/[I:staff +1][f'g']/[I:staff -1][bd'a']/[I:staff +1][f'g']/[I:staff -1][bd'a']/[I:staff +1][f'g']/[I:staff -1][bd'a']/[I:staff +1][f'g']/[I:staff -1][bd'a']/ | %81
[I:staff +1] [f'g']/[I:staff -1][^bd'a']/[I:staff +1][f'g']/[I:staff -1][bd'a']/[I:staff +1] [f'g']/[I:staff -1][bd'a']/[I:staff +1][f'g']/[I:staff -1][bd'a']/!<(![I:staff +1] [f'g']/[I:staff -1][^bd'^a']/[I:staff +1][f'g']/[I:staff -1][bd'a']/[I:staff +1] [f'g']/[I:staff -1][^bd'=b']/[I:staff +1][f'g']/[I:staff -1][bd'b']/!<)! || %82
[K:Db][I:staff +1] a/[I:staff -1][e'g'c'']/[I:staff +1]=d'/[I:staff -1][e'g'c'']/[I:staff +1] a/[I:staff -1][=e'=g'd'']/[I:staff +1]_e'/[I:staff -1][e'g'd'']/[I:staff +1] a/[I:staff -1][f'a'=d'']/[I:staff +1]=e'/[I:staff -1][f'a'd'']/[I:staff +1] a/[I:staff -1][_g'=a'e'']/[I:staff +1]f'/[I:staff -1][g'a'e'']/ | %83
[I:staff +1] a/[I:staff -1][f'_a'=d'']/[I:staff +1]=e'/[I:staff -1][f'a'd'']/[I:staff +1] a/[I:staff -1][g'=a'e'']/[I:staff +1]f'/[I:staff -1][g'a'e'']/[I:staff +1] a/[I:staff -1][=g'b'=e'']/[I:staff +1]_g'/[I:staff -1][=g'b'e'']/[I:staff +1] a/[I:staff -1][_a'=b'f'']/[I:staff +1]=g'/[I:staff -1][a'b'f'']/ | %84
 (3=d''/f''/e''/(3c''/e''/_d''/ (3=b'/d''/c''/(3=a'/c''/b'/ (3=g'/b'/_a'/(3f'/a'/_g'/ (3=e'/g'/f'/(3=d'/f'/_e'/ | %85
 (3c'/e'/_d'/(3=b/d'/c'/"_dim." (3=a/c'/_b/(3=g/b/_a/!8va)! (3f/a/_g/(3=e/g/f/ (3=d/f/_e/(3c/e/_d/ | %86
 (3=B/d/c/(3=A/c/_B/ (3=G/B/_A/(3F/A/_G/ (3=E/G/F/(3=D/F/_E/ (3C/E/_D/(3B,/D/C/ | %87
 (3(=B,!<(!CD){/CD} (3(CB,C)!<)!!>(!{/!fermata!C} (!fermata!F3!>)! E) | %88
"^a tempo""^una corda"!p! (6:4:6D/A,/D/A/E/D/ (6:4:6A/D/A/d/B/A/ (6:4:6d/A/d/a/e/d/ (6:4:6A/e/d/a/e/d/ | %89
 (6:4:6A/e/c/[fa]/e/c/ (6:4:6A/e/c/[fa]/e/c/ (6:4:6A/e/c/[fa]/e/c/ (6:4:6A/e/c/[fa]/e/c/ | %90
 (6:4:6A/e/c/[fa]/e/c/ (6:4:6A/e/c/[fa]/e/c/ (6:4:6z/ d/f/d'/b/a/ (6:4:6z/ f/a/f'/d'/b/ | %91
!pp!!8va(! (6:4:6a/e'/c'/[f'a']/e'/c'/ (6:4:6a/e'/c'/[f'a']/e'/c'/ (6:4:6a/e'/c'/[f'a']/e'/c'/ (6:4:6a/e'/c'/[f'a']/e'/c'/ | %92
 (6:4:6a/e'/c'/[f'a']/e'/c'/ (6:4:6a/e'/c'/[f'a']/e'/c'/ (6:4:6a/e'/c'/[f'a']/e'/c'/ (6:4:6a/e'/c'/[f'a']/e'/c'/ | %93
 (6:4:6a/e'/c'/[f'a']/e'/c'/ (6:4:6a/e'/c'/[f'a']/e'/c'/ (6:4:6a/e'/c'/[f'a']/e'/c'/ (6:4:6a/e'/c'/[f'a']/e'/c'/ | %94
 (6:4:6a/e'/c'/[f'a']/e'/c'/ (6:4:6a/e'/c'/[f'a']/e'/c'/ (6:4:6a/e'/c'/[f'a']/e'/c'/ (6:4:6a/e'/c'/[f'a']/e'/c'/ | %95
 (6:4:6a/e'/c'/[f'a']/e'/c'/"_dim." (6:4:6a/e'/c'/[f'a']/e'/c'/ (6:4:6a/e'/c'/[f'a']/e'/c'/ (6:4:6a/e'/c'/[f'a']/e'/c'/ | %96
 (6:4:6a/e'/c'/[f'a']/e'/c'/ (6:4:6a/e'/c'/[f'a']/e'/c'/ (6:4:6a/e'/c'/[f'a']/e'/c'/ (6:4:6a/e'/c'/[f'a']/e'/c'/ | %97
 a!8va)! z z2 z4 |!8va(! !arpeggio!!wedge![ad'f'd'']!8va)! z z2 z4 |] %99
V:3
"^dolciss."!ped! z8!ped-up! |!ped! z"^dolce con graza." (G2 F =DFE_D)!ped-up! | %2
!ped! (=B,DC_B, =G,B,A,_G,)!ped-up! |!ped! (F,A,DE!ped-up! =E2 .F) (D | %4
!ped! B,A,DF[K:treble] B2 .A)!ped-up! z |[K:bass]!ped! z (G2 F =D{/F}E_DC!ped-up! | %6
!ped! =B,{/D}C_B,A, =G,{/B,}A,G,_G,)!ped-up! |!ped! (F,A,DE =E2 .F)!ped-up! (D || %8
[K:E] B,A,!ped!CF[K:treble] G2 .A) F |{/D} (C!ped-up!B,!ped!EG ^A2 B) (G | %10
{/E} D!ped-up!C!ped!EA ^B2 c) z!ped-up! |!ped! z (!>!A2 G!ped-up!!ped! ^E{/G}F=E=D!ped-up! | %12
 ^B,{/^D}C=B,A,)[K:bass]!ped! (G,{/B,}A,G,F,)!ped-up! | %13
!ped! (=E,^D,F,G, B,!ppp!A,!<(!CD)!ped-up!!<)! || %14
[K:Db]!ped! (3:2:6A,,/A,/G,/C/A,/G,/!ped-up!!ped! (3:2:6B,,/A,/G,/D/A,/G,/!ped-up!!ped! (3:2:6C,/A,/G,/E/A,/G,/!ped-up!!ped! (3:2:6D,/A,/G,/G/B,/G,/!ped-up! | %15
!ped! (3:2:6E,/C/A,/G/C/A,/!ped-up!!ped! (3:2:6=E,/D/A,/=G/D/A,/!ped-up!!ped! (3:2:6F,/=B,/=D/A,/B,/D/!ped-up!!ped! _G,A,!ped-up! | %16
!ped! D, F,[K:treble] B,!ped-up! A,!ped! G, x!ped-up!!ped! _A, A, | %17
 =G,A,[K:bass] (3:2:6_G,/_E/B,/F,/D/A,/ |!ped! =E,F,!ped-up!!ped! C,!ped-up!D, | %19
!ped! (3:2:6A,,/A,/G,/C/A,/G,/!ped-up!!ped! (3:2:6B,,/A,/G,/D/A,/G,/!ped-up!!ped! (3:2:6C,/A,/G,/E/A,/G,/!ped-up!!ped! (3:2:6D,/A,/G,/G/B,/G,/ | %20
!ped! x2!ped-up!!ped! =E,2!ped-up!!ped! F,2!ped-up!!ped! _G,A,!ped-up! | %21
!ped! D, F,[K:treble] (3:2:6B,/!ped-up!G/D/A,/F/D/!ped! (3:2:6=G,/B/=E/D/=A/D/!ped-up!!ped! (3:2:6_A,/_A/D/_C/A/F/!ped-up! || %22
[K:E] (3G,/^E/C/(3A,/F/C/ (3G,/=E/B,/[K:bass] (3F,/D/A,/!>(!!ped! (3E,/!<(!C/G,/(3F,/D/A,/!>)! (3E,/C/F,/!<)!(3D,/B,/D/!ped-up! | %23
[K:treble] (3A,/F/D/ (3B,/G/E/ (3A,/F/C/ (3G,/E/B,/[K:bass]!>(!!ped! (3^^F,/!<(!D/C/(3G,/E/B,/!>)! (3^F,/D/A,/!<)!(3E,/!ped-up!B,/E/ | %24
[K:treble] (3B,/G/E/(3C/A/F/ (3B,/G/D/(3A,/F/C/[K:bass]!>(!!ped! (3F,/!<(!D/A,/(3G,/E/B,/!>)! (3F,/D/A,/!<)!(3E,/!ped-up!C/A,/ | %25
!ped! D, x!ped-up!!ped! E, x!ped-up!!ped! D, x!ped-up!!ped! C, x!ped-up! | %26
!ped! (3^B,,/A,/F,/(3D/A,/F,/!ped-up!!ped! (3C,/A,/F,/(3E/A,/F,/!ped-up!!ped! (3^B,,/A,/F,/(3D/A,/F,/"^accel."!ped-up!!ped! (3=B,,/A,/F,/(3D/A,/F,/!ped-up! || %27
[K:F]"^rinforz."!ped! (3B,,/^F,/A,/[K:treble] (3D/^F/A/ (6:4:6d/A/^F/D/A,/^F,/[K:bass]!ped-up!!ped! (3B,,/G,/B,/[K:treble]!<(! (3D/G/B/ (6:4:6d/B/G/!<)!D/B,/G,/!ped-up! | %28
[K:bass]!ped! (3B,,/G,/E,/(3^C/G,/E,/!ped-up!!ped! (3=B,,/^G,/=F,/(3D/G,/F,/!ped-up!!ped! (3=C,/A,/^F,/(3_E/A,/F,/!ped-up!!ped! (3C,/C/_B,/(3=E/C/B,/!ped-up! | %29
!ped! !arpeggio!!wedge!!^![=F,,A,]"_una cordo."!pp! z z z[K:treble] z z z z!ped-up! | %30
!ped! z!ped-up!"^cantando."{/F,} (B2 A ^F{/A}GEB,) | %31
!pp!!ped! (3=B,/D/C/ z[K:bass] x z[K:treble] z z z z!ped-up! | %32
!ped! z!ped-up!"^cantando."{/F,} (B2 A ^F{/A}GEB,) | %33
[K:bass]!ped! (=B,{/D}CA,F,)!ped-up!!ped! (^F,{/A,}G,E,_B,,)!ped-up! | %34
!ped! (A,,C,F,"^delicatamente."G, ^G,2 A,) F,!ped-up! |!ped! (C,F,A,B,!ped-up! =B,2 C) (A, | %36
!ped! F,A,CE!ped-up!"_poco rallent." G F2) ^D || %37
[K:A]!ped! E z (3[A,C]/F/E/ z!ped-up![K:treble] (3[Ac]/f/e/ z (3[ac']/f/e/ z | %38
!ped! z{/A,} (d2 c ^A{/c}BGE)!ped-up! | %39
!ped! (3(^D/F/E/)[I:staff -1] (3([Ac]/F/E/[I:staff +1](3[A,C]/F/E/)[I:staff -1] (3([ac']/f/e/[I:staff +1](3[Ac]/f/e/)!8va(![I:staff -1] (3([a'c'']/f'/e'/!8va)![I:staff +1](3[ac']/f/e/)!8va(![I:staff -1] (3[c'e']/b/a/!ped-up!!8va)! | %40
!ped![I:staff +1] z{/A,} (d2 c ^A{/c}BGE)!ped-up! |!ped! (^D{/F}ECB,) | x4!ped-up! %42
[K:bass]!ped! (^A,{/C}B,G,=D,)!ped-up! | %43
!ped! (C,E,A,"^delicatamente."B,!ped-up! !tenuto!^B,2 C) A, |!ped! (E,A,CD ^D2!ped-up! E) (C | %45
!ped! A,CEF ^DE)!ped-up! z2 || %46
[K:C]!ped! z"_marcato." (!>!_B,,2 A,,!ped-up!!ped! ^F,,G,,!ped-up!!ped!E,,D,,) | %47
!ped! (3(^C,,/_B,,/^C,/ (3E,,/!<(!C,/E,/ (3G,,/E,/G,/ (3A,,/!<)!^F,/A,/)!ped-up!!ped! (6:4:6^C,/_B,/^C/B,/E,/B,/!ped-up!!ped! (6:4:6D,/B,/D/B,/G,/B,/!ped-up! | %48
!ped! z"_marcato." (_C,2 _B,,!ped-up!!ped! =G,,_A,,!ped-up!!ped!F,,_E,,)!ped-up! | %49
!ped! (3(D,,/_C,/D,/ (3F,,/!<(!D,/F,/ (3_A,,/F,/_A,/ (3_B,,/!<)!G,/_B,/)!ped-up!!ped! (6:4:6D,/_C/D/C/F,/C/!ped-up!!ped! (6:4:6_E,/_C/_E/C/A,/C/!ped-up! | %50
"^sempre cresc."!ped! z (!>!=C,2 B,,!ped-up!!ped! ^G,,A,,!ped-up!!ped!^F,,E,,)!ped-up! | %51
!ped! [_E,,^F,] (!arpeggio!!>![_E,,_E,]2 [D,,D,]!ped-up!!ped! [=B,,,=B,,][C,,C,]!ped-up!!ped![A,,,A,,][^G,,,^G,,])!ped-up! | %52
!ped! x (3=A,,/"^appassionato."_G,/A,/!<(! (3C,/A,/C/ (3_E,/!<)!C/_E/!ped-up!!ped! (6:4:6=F,/!>(!C/[I:staff -1]=F/[I:staff +1]A,/C/[I:staff -1]_G/!>)!!ped-up!!ped![I:staff +1] (6:4:6_G,/[I:staff -1]_E/_G/[I:staff +1]_B,/[I:staff -1]E/G/!ped-up! | %53
!ped![I:staff +1] (3_G,,/_E,/_G,/ (3=A,,/G,/A,/ (3C,/A,/C/ (3E,/C/_E/!ped-up!!ped! (6:4:6=F,/C/[I:staff -1]=F/[I:staff +1]A,/C/[I:staff -1]_G/!ped-up!!ped![I:staff +1] (6:4:6_G,/[I:staff -1]_E/_G/[I:staff +1]_B,/[I:staff -1]E/G/!ped-up! | %54
!ped![I:staff +1] !arpeggio![_G,_G]"_accel." !arpeggio!!wedge![_E,_E] !wedge![C,C] !wedge![_B,,_B,] !wedge![=A,,A,] !wedge![_E,E] !wedge![C,C] !wedge![A,,A,]!ped-up! | %55
 !wedge![_G,,_G,] !wedge![_F,,_F,] !wedge![_E,,_E,] !wedge![A,,A,] !wedge![_G,,G,] !wedge![E,,E,] !wedge![C,,C,] !wedge![_B,,,_B,,] | %56
!fff!!ped! [=A,,,=A,,]"_ten." !^![F,A,CF]2 [^C,^C]!ped-up!!ped! [=B,,B,][_D,_D]!ped-up!!ped![=C,=C][A,,A,]!ped-up! | %57
!ped! [A,,,A,,]"_ten." !^![F,A,CF]2 [^C,^C]!ped-up!!ped! [=B,,B,][=D,=D]!ped-up!!ped![^C,C][A,,A,]!ped-up! | %58
!ped! [A,,,A,,]"_ten." !^![^F,A,D^F]2 [D,D]!ped-up!!ped! [^C,^C][E,E]!ped-up!!ped![D,D][B,,B,]!ped-up! | %59
!ped! [^G,,^G,]/[I:staff -1]^G,/[I:staff +1][B,,B,]/[I:staff -1]B,/!ped-up!!ped![I:staff +1] [A,,A,]/[I:staff -1]A,/[I:staff +1][^F,,^F,]/[I:staff -1]^F,/!ped-up!"^strepituoso."!ped![I:staff +1] (3[^C,,^C,][D,,D,][E,,E,] (3[D,,D,][C,,C,][B,,,B,,]!ped-up! | %60
!fff! (3[^G,,,^G,,][A,,,A,,][B,,,B,,] (3[A,,,A,,][G,,,G,,][^F,,,^F,,] (3[^E,,,^E,,][F,,,F,,][^G,,,^G,,] (3[A,,,A,,][^C,,^C,][D,,D,] | %61
 (3[^E,,^E,][^F,,^F,][^G,,^G,] (3[A,,A,][^C,^C][D,D] .^E, .^F, .^G, .A, || %62
[K:Db]!ped! (3[A,,,A,,]/A,/G,/(3C/A,/G,/!ped-up!!ped! (3B,,/A,/G,/(3D/A,/G,/!ped-up!!ped! (3C,/A,/G,/(3E/A,/G,/!ped-up!!ped! (3D,/B,/G,/(3G/B,/G,/ | %63
!ped! x2!ped-up!!ped! =E,2!ped-up!!ped! F,2!ped-up!!ped! _G,A,!ped-up! | %64
!ped! D, F,[K:treble] (3B,/G/!ped-up!D/(3A,/F/D/!ped! (3=G,/!>(!B/=E/(3D/=A/D/!ped-up!!ped!!>)! (3A,/_A/D/(3A,/F/D/!ped-up! | %65
 (3=G,/=E/D/(3A,/F/D/[K:bass] _G,!ped-up!F,!ped! =E,F,!ped-up!!ped! C,D, | %66
!ped! (3A,,/A,/_G,/(3C/A,/G,/!ped-up!!ped! (3B,,/A,/G,/(3D/A,/G,/!ped-up!!ped! (3C,/A,/G,/(3D/A,/G,/!ped-up!!ped! (3D,/B,/G,/(3G/B,/G,/!ped-up! | %67
!ped! (3E,/C/A,/(3G/C/A,/!ped-up!!ped! (3=E,/D/A,/(3=G/D/A,/!ped-up!!ped! (3F,/=B,/=D/(3A,/=B,/D/!ped-up!!ped! (3_G,/C/E/(3A,/C/E/!ped-up! | %68
!ped! (6:4:6D,/D/A,/F,/A,/D/[K:treble] (3B,/G/D/(3A,/F/D/!ped! (3=G,/B/=E/(3D/=A/D/!ped-up!!ped! (3_A,/_A/E/(3A,/F/D/!ped-up! | %69
!ped! (3=G,/E/D/(3A,/F/D/[K:bass] F,!ped-up!D, !^!_C,[K:treble] (3D/F/A/ d z | %70
[K:bass]!ped! !^!B,,[K:treble] (3D/G/B/ d z!ped-up![K:bass]!ped! !^!=A,,[K:treble] (3D/G/=A/ d z!ped-up! | %71
[K:bass]!ped! (3=A,,/^F,/=A,/[K:treble] (3=D/^F/=A/ =d z z !>![^F=Ad]2!ped-up! !>![^F=c^d] || %72
[K:E]"_marc.""^stringendo molto e sempre fortissimo ed appassionato."!ped! !wedge!!^!G, !>![GBe] !wedge!!^!B,!ped-up! !>![GBf] !wedge!!^!E !>![Be^^f] !wedge!!^!G !>![Beg] | %73
!ped! !wedge!!^!^F !>![^Bda] !wedge!!^!D [Bdg] !wedge!!^!=C [Adf] !wedge!!^!A, [F=cd]!ped-up! | %74
!ped! !wedge!!^!G, !>![G=Be] !wedge!!^!B, !>![GBf] !wedge!!^!E !>![Be^^f] !wedge!!^!G !>![Beg]!ped-up! | %75
!ped! !wedge!!^!^F !>![^Bda] !wedge!!^!D [Bdg] !wedge!!^!=C [Adf] !wedge!!^!A, [F=cd]!ped-up! | %76
!ped! G, [G=Be] B, [GBf] E [Be^^f] G [Beg]!ped-up! | %77
!ped! =D [GB^e] ^D [A^Bf]!ped-up!!ped! E [^Ac=g] ^E [=B=d^g]!ped-up! | %78
!ped! F [^Bda] =G [cea]!ped-up!!ped! F [^Bda] =G [cea]!ped-up! | %79
!ped! ^G [df^b] ^G [efc'] ^G [dfb] ^G [f^bd']!ped-up! |!8va(! x8 | x8 ||[K:Db]!<(! x8!<)! | %83
!<(! x8!<)! |!ped! !^!_g'/b'/f'/a'/ e'/g'/d'/f'/ c'/e'/b/d'/ a/c'/g/b/!ped-up!!8va)! | %85
 f/a/e/g/ d/f/c/e/ B/d/A/c/ G/B/F/A/ | E/G/D/F/ C/E/B,/D/[K:bass] A,/C/G,/B,/ F,/A,/=E,/=G,/ | %87
"_riten. molto" !arpeggio![_E,_G,=A,] z z2!ped-up!!ped! z2 !arpeggio![_A,,G,C] !fermata!z | %88
"^dolcissimo."!ped! !arpeggio![D,,F,] z z2 z4!ped-up! |!ped! z{/D,} (G2 F =D{/F}ECB,)!ped-up! | %90
!ped! (=G,A,DF[K:treble]!ped-up!!ped! =G2 A) z!ped-up! | %91
!ped! z{/D} (!tenuto!g2 f =d{/f}ecB)!ped-up! | %92
!ped! (=G{/B}AFD)!ped-up!!ped! (=D{/F}EC_G,)!ped-up! | %93
!ped! (F,A,_DE!ped-up!!ped! =E2 F) (D!ped-up! |!ped! B,A,DF!ped-up!!ped! B2 A) (F!ped-up! | %95
!ped! (D)FAd =e4!ped-up! | f) z z2 z4 | z4!ppp! !arpeggio!!wedge![DAdf] z z2 | z8 |] %99
V:4
 x8 | x8 | x8 | x8 | x4[K:treble] x4 |[K:bass] x8 | x8 | x8 ||[K:E] x4[K:treble] x4 | x8 | x8 | %11
 x8 | x4[K:bass] x4 | x8 ||[K:Db] x8 | x6 (3:2:6G,/C/E/A,/C/E/ | %16
 (3:2:6D,/D/A,/F,/A,/D/[K:treble] (3:2:6B,/G/D/A,/F/D/ (3:2:6G,/B/=E/D/=A/D/ (3:2:6A,/_A/D/A,/F/D/ | %17
 (3:2:6=G,/=E/D/A,/F/D/[K:bass] _G,F, | (6:4:12=E,/C/=G,/F,/D/A,/ C,/=E/A,/D,/F/A,/ | x8 | %20
 (3:2:6E,/C/A,/G/C/A,/ (3:2:6=E,/D/A,/=E/D/A,/ (6:4:12F,/=B,/=D/A,/B,/D/ G,/C/E/A,/C/E/ | %21
 (3:2:6D,/D/A,/F,/A,/D/[K:treble] B, A, =G,2 A, _C ||[K:E] G, A, G,[K:bass] F, E,F,E,D, | %23
[K:treble] A, B, A, G,[K:bass] ^^F,G,^F,E, |[K:treble] B, C B, A,[K:bass] F,G,F,E, | %25
 (3D,/^B,/A,/(3F/B,/A,/ (3E,/C/B,/(3G/C/A,/ (3D,/^B,/A,/(3F/B,/A,/ (3C,/A,/F,/(3E/A,/F,/ | x8 || %27
[K:F] x[K:treble] x3[K:bass] x[K:treble] x3 |[K:bass] x8 | x4[K:treble] x4 | x8 | %31
 x2[K:bass] x2[K:treble] x4 | x8 |[K:bass] x8 | x8 | x8 | x8 ||[K:A] x4[K:treble] x4 | x8 | %39
 x5!8va(! x!8va)! x!8va(! x!8va)! | x8 | x4 |[K:bass] x4 | x8 | x8 | x8 ||[K:C] x8 | %47
 ^C,,E,,G,,A,, (^C,2 D,2) | x8 | D,,F,,_A,,_B,, (D,2 _E,2) | x8 | x8 | %52
 [^F,,,^F,,] A,,C,_E, F,2 _G,2 | _G,,A,,C,_E, F,2 _G,2 | x8 | x8 | x8 | x8 | x8 | x8 | x8 | x8 || %62
[K:Db] x8 | (3E,/C/A,/(3G/C/A,/ (3=E,/D/A,/(3=E/D/A,/ (3F,/=B,/=D/(3A,/=B,/D/ (3G,/C/E/(3A,/C/E/ | %64
 (3D,/D/A,/(3F,/A,/D/[K:treble] B,A, =G,2 _A,A, | %65
 =G,A,[K:bass] (3_G,/_E/B,/(3F,/D/A,/ (3=E,/C/=G,/(3F,/D/A,/ (3C,/=E/A,/(3D,/F/A,/ | x8 | x8 | %68
 x2[K:treble] B, A, =G,2 A, A, | =G,A,[K:bass] (3F,/D/A,/(3D,/D/A,/ (3_C,/F,/A,/[K:treble] x x2 | %70
[K:bass] (3B,,/G,/B,/[K:treble] x x2[K:bass] (3=A,,/_G,/=A,/[K:treble] x x2 | %71
[K:bass] x6[K:treble] !wedge!!^!=A, x ||[K:E] x8 | x8 | x8 | x8 | x8 | x8 | x8 | x8 |!8va(! x8 | %81
 x8 ||[K:Db] x8 | x8 | x8!8va)! | x8 | x4[K:bass] x4 | x8 | x8 | x8 | x4[K:treble] x4 | x8 | x8 | %93
 x8 | x8 | x8 | x8 | x8 | x8 |] %99
V:5
 x8 | x8 | x8 | x8 | x8 | x8 | x8 | x8 ||[K:E] x8 | x8 | x8 | x8 | x8 | x8 ||[K:Db] x8 | x8 | x8 | %17
 x4 |!8va(! x3!8va)! x | x8 | x8 | x8 ||[K:E] x8 | x8 |!8va(! x7!8va)! x | x8 | x!8va(! x7 || %27
[K:F] x8!8va)! | x8 | x5!8va(! x!8va)! x2 | x8 | x5!8va(! x!8va)! x2 | x8 | x8 | %34
 x!8va(! (3a'/c'/a/(3c'/a/c'/ (3g'/c'/a/ (3e'/c'/a/ (3g'/c'/a/ (3f'/c'/a/ (3d'/a/f/ | %35
 (3=b/a/f/ (3d'/a/f/ (3c'/f/c/ (3_b/f/d/!8va)! (3^g/f/d/ (3a/f/d/ (3a/f/A/ (3=g/c/A/ | %36
 (3e/c/A/ (3g/c/A/ (3f/c/A/ (3e/c/A/ (3^d/c/A/ (3^g/^d/c/ (3a/d/c/ (3=b/a/f/ ||[K:A] x5!8va(! x3 | %38
 x8!8va)! | x5!8va(! x3 | x8 | x4 | x4 | %43
 x (3c''/e'/c'/(3e'/c'/e'/ (3b'/e'/c'/ (3g'/e'/c'/ (3b'/e'/c'/ (3a'/e'/c'/ (3f'/c'/a/ | %44
 (3^d'/c'/a/ (3f'/c'/a/ (3e'/a/e/ (3=d'/a/f/!8va)! (3^b/a/f/ (3c'/a/f/ (3c'/a/c/ (3=b/e/c/ | %45
 (3g/e/c/ (3b/e/c/ (3a/e/c/ (3^d/c/A/ (3f/c/A/ (3e/c/A/ x2 || %46
[K:C] (3^C/[I:staff +1]G,/E,/[I:staff -1] (3E/!>(!C/[I:staff +1]G,/[I:staff -1] (3G/E/C/!>)! (3A/E/C/ (6:4:6A,/!>(!E/^C/^B,/!>)!E/C/ (6:4:6_B,/G/D/^C/D/G/ | %47
 x!8va(! x7!8va)! | %48
[I:staff +1] (3D/_A,/=F,/[I:staff -1] (3F/D/_A,/ (3_A/F/D/ (3_B/F/D/ (6:4:6_B,/!>(!F/D/^C/!>)!F/D/ (6:4:6_C/_A/_E/D/E/A/ | %49
 x!8va(! x7!8va)! | %50
[I:staff +1] (3_E/=A,/^F,/[I:staff -1] (3^F/^D/A,/ (3A/F/D/ (3B/F/D/ (6:4:6B,/!>(!F/^D/=D/!>)!F/^D/ (6:4:6C/A/=E/^D/A/E/ | %51
[I:staff +1] ^F,[I:staff -1]A,CD (3!arpeggio!D/A/^F/(3^E/A/F/ (3_E/c/^F/(3^E/c/F/ | x8 | x8 | %54
 x7/3!8va(! x17/3 | x8 | x3!8va)! x[K:bass] x4 |[K:treble] x/3!8va(! x8/3!8va)! x[K:bass] x4 | %58
[K:treble] x/3!8va(! x8/3!8va)! x[K:bass] x4 | x8 |[K:treble] x8 | %61
 x4 !wedge!^E !wedge!^F !wedge!^G !wedge!A ||[K:Db] x8 | x8 | x8 | x4!8va(! x3!8va)! x | x8 | x8 | %68
 x8 | x4!8va(! x4 | x8 | x8 ||[K:E] x8 | x8 | x8 | x8 | x8 | x8 | x8 | x8 | x8 | x8 ||[K:Db] x8 | %83
 x8 | x8 | x4!8va)! x4 | x8 | x8 | x8 | x8 | x8 |!8va(! x8 | x8 | x8 | x8 | x8 | x8 | x!8va)! x7 | %98
!8va(! x!8va)! x7 |] %99

